symbols/web/camera/materialsymbolsoutlined/camera_wght100gradN25_48px.svg

<svg xmlns="http://www.w3.org/2000/svg" height="48" width="48"><path d="M22.45 18.55h17q-1.3-3.6-4.3-6.475-3-2.875-6.75-3.825Zm-4 4.05 8.6-14.75q-.55-.05-1.525-.1Q24.55 7.7 24 7.7q-3.4 0-6.3 1.25t-5.15 3.45ZM8.2 28.1H20l-8.35-14.7q-1.9 2.25-2.925 4.9Q7.7 20.95 7.7 24q0 1.05.125 2.075Q7.95 27.1 8.2 28.1Zm11.55 11.6 5.95-10.25H8.55q1.3 3.6 4.375 6.45t6.825 3.8Zm4.25.6q3.4 0 6.3-1.25t5.15-3.45l-5.9-10.2-8.5 14.65q.55.1 1.45.175.9.075 1.5.075Zm12.4-5.7q1.6-2.1 2.75-4.925Q40.3 26.85 40.3 24q0-1.05-.125-2.075Q40.05 20.9 39.8 19.9H28.05ZM24 24Zm0 17.4q-3.55 0-6.75-1.375T11.7 36.3q-2.35-2.35-3.725-5.55Q6.6 27.55 6.6 24q0-3.6 1.375-6.775 1.375-3.175 3.725-5.55t5.55-3.725Q20.45 6.6 24 6.6q3.6 0 6.775 1.375 3.175 1.375 5.55 3.725t3.725 5.525Q41.4 20.4 41.4 24q0 3.55-1.375 6.75T36.3 36.3q-2.35 2.35-5.525 3.725Q27.6 41.4 24 41.4Z"/></svg>

<svg xmlns="http://www.w3.org/2000/svg" height="48" width="48"><path d="M22.45 18.55H39.45Q38.15 14.95 35.15 12.075Q32.15 9.2 28.4 8.25ZM18.45 22.6 27.05 7.85Q26.5 7.8 25.525 7.75Q24.55 7.7 24 7.7Q20.6 7.7 17.7 8.95Q14.8 10.2 12.55 12.4ZM8.2 28.1H20L11.65 13.4Q9.75 15.65 8.725 18.3Q7.7 20.95 7.7 24Q7.7 25.05 7.825 26.075Q7.95 27.1 8.2 28.1ZM19.75 39.7 25.7 29.45H8.55Q9.85 33.05 12.925 35.9Q16 38.75 19.75 39.7ZM24 40.3Q27.4 40.3 30.3 39.05Q33.2 37.8 35.45 35.6L29.55 25.4L21.05 40.05Q21.6 40.15 22.5 40.225Q23.4 40.3 24 40.3ZM36.4 34.6Q38 32.5 39.15 29.675Q40.3 26.85 40.3 24Q40.3 22.95 40.175 21.925Q40.05 20.9 39.8 19.9H28.05ZM24 24Q24 24 24 24Q24 24 24 24Q24 24 24 24Q24 24 24 24Q24 24 24 24Q24 24 24 24Q24 24 24 24Q24 24 24 24Q24 24 24 24Q24 24 24 24Q24 24 24 24Q24 24 24 24Q24 24 24 24Q24 24 24 24Q24 24 24 24Q24 24 24 24ZM24 41.4Q20.45 41.4 17.25 40.025Q14.05 38.65 11.7 36.3Q9.35 33.95 7.975 30.75Q6.6 27.55 6.6 24Q6.6 20.4 7.975 17.225Q9.35 14.05 11.7 11.675Q14.05 9.3 17.25 7.95Q20.45 6.6 24 6.6Q27.6 6.6 30.775 7.975Q33.95 9.35 36.325 11.7Q38.7 14.05 40.05 17.225Q41.4 20.4 41.4 24Q41.4 27.55 40.025 30.75Q38.65 33.95 36.3 36.3Q33.95 38.65 30.775 40.025Q27.6 41.4 24 41.4Z"/></svg>
